X:10
T:Pentland Hills
C:Joe Buchanan's Scottish Tome - Page 507.2
I:507 2
C:J. Oswald
U:T=!tenuto!
Z:Carl Allison
R:Air
L:1/8
M:3/4
K:G
!p!(B>A)  | (G2 TG2) (d>c)  | (e2 B2) (g>f)  | !4!e2 (efgd) | (c2B2) (Bc/d/) |
G4 (GA/B/) | (E3 !4!!diminuendo(!Te)dc | !diminuendo)!!p!B2 (c>B)  !uppermordent![DA]2  | [G2B,4] :|
!mf!(B>A) | (G>A B2) (g>f) | (e3 d) B2 | g2 (fef^d)  | e4 (ef)  |
(g2 d2) (fe)  | (ed)(cB)AG | d2 ((ed)(cB)) | (B2 A2) (G>F)  |
(E>F G2) (d>c) | (cB TB2) !f!(gf)  | e2 (efgd)  | (c2 B2) (Bc/d/) |
G2 (GA/B/) | (E3 !diminuendo(!Te)dc | !diminuendo)!!p!B2 c>B !uppermordent![DA]2  | [G2B,4] |]
